icons/brand/icon_bank-psb_m_white.svg

<?xml version="1.0" encoding="UTF-8"?>
<svg width="24px" height="24px" viewBox="0 0 24 24" version="1.1" xmlns="http://www.w3.org/2000/svg" xmlns:xlink="http://www.w3.org/1999/xlink">
    <!-- Generator: Sketch 49.2 (51160) - http://www.bohemiancoding.com/sketch -->
    <title>icon_bank-psb_m_white</title>
    <desc>Created with Sketch.</desc>
    <defs></defs>
    <g id="page" stroke="none" stroke-width="1" fill="none" fill-rule="evenodd">
        <g id="промсвязьбанк" transform="translate(-28.000000, -6.000000)">
            <g id="icon_bank-psb_m_white" transform="translate(28.000000, 6.000000)">
                <rect id="Rectangle" x="0" y="0" width="24" height="24"></rect>
                <g id="Group" transform="translate(2.000000, 2.000000)" fill="#FFFFFF" fill-rule="nonzero">
                    <path d="M0,16.308 C0.00658646947,18.3443009 1.65569915,19.9934135 3.692,20 L12.307,20 C14.3436914,19.9939621 15.9934106,18.3446897 16,16.308 L16,16 L7.692,16 C5.65547209,15.9939593 4.00604071,14.3445279 4,12.308 L4,4 L3.692,4 C1.65547209,4.00604071 0.00604070504,5.65547209 4.11115586e-16,7.692 L0,16.308 Z" id="Shape" opacity="0.3"></path>
                    <path d="M16.307,16 C18.3436914,15.9939621 19.9934106,14.3446897 20,12.308 L20,3.692 C19.9939566,1.65508314 18.3439184,0.00549177965 16.307,0 L7.692,0 C5.65524489,0.00549437878 4.00549438,1.65524489 4,3.692 L4,4 L12.308,4 C14.3445279,4.00604071 15.9939593,5.65547209 16,7.692 L16,16 L16.307,16 Z" id="Shape"></path>
                    <path d="M15.122,8.649 C14.9910854,8.05094762 14.5089886,7.59301512 13.905,7.493 C14.27,7.371 14.696,7.067 14.696,6.277 C14.696,5.426 14.027,5 12.993,5 L11.29,5 L11.29,7.068 L10.256,7.068 C8.918,7.068 8.614,7.98 8.614,8.467 C8.614,9.197 9.04,9.501 9.769,9.866 C10.256,10.048 10.803,10.292 10.803,10.717 C10.803,10.96 10.56,11.325 10.012,11.325 L9.161,11.325 C9.283,11.082 9.343,10.778 9.343,10.534 C9.343,10.169 9.221,8.892 7.397,8.892 L6,8.892 L6,14 L7.034,14 L7.034,11.75 L7.46,12.176 L10.196,12.176 C11.473,12.176 12.142,11.507 12.142,10.717 C12.142,10.474 12.081,10.17 12.02,10.048 L13.115,10.048 C14.757,10.047 15.122,9.257 15.122,8.649 Z M7.459,11.568 L6.973,11.568 L6.973,9.865 L7.46,9.865 C8.068,9.865 8.311,10.23 8.311,10.656 C8.311,11.082 8.068,11.568 7.459,11.568 Z M11.412,8.405 L11.412,9.621 C11.169,9.499 10.865,9.378 10.621,9.195 C10.256,9.073 9.952,8.83 9.952,8.465 C9.952,8.283 10.074,7.918 10.682,7.918 L11.898,7.918 L11.412,8.405 Z M12.446,5.912 L12.933,5.912 C13.724,5.912 13.724,6.398 13.724,6.52 C13.724,6.702 13.602,7.128 12.933,7.128 L12.446,7.128 L12.446,5.912 Z M12.385,9.378 L12.385,7.98 L12.993,7.98 C13.723,7.98 13.844,8.345 13.844,8.649 C13.905,9.075 13.662,9.379 12.993,9.379 L12.385,9.379 L12.385,9.378 Z" id="Shape"></path>
                </g>
            </g>
        </g>
    </g>
</svg>

<svg xmlns="http://www.w3.org/2000/svg" width="20" height="20" viewBox="0 0 20 20"><g fill="#FFF"><path d="M0 16.308A3.704 3.704 0 0 0 3.692 20h8.615A3.704 3.704 0 0 0 16 16.308V16H7.692A3.703 3.703 0 0 1 4 12.308V4h-.308A3.703 3.703 0 0 0 0 7.692v8.616z" opacity=".3"/><path d="M16.307 16A3.704 3.704 0 0 0 20 12.308V3.692A3.703 3.703 0 0 0 16.307 0H7.692A3.702 3.702 0 0 0 4 3.692V4h8.308A3.703 3.703 0 0 1 16 7.692V16h.307z"/><path d="M15.122 8.649a1.496 1.496 0 0 0-1.217-1.156c.365-.122.791-.426.791-1.216 0-.851-.669-1.277-1.703-1.277H11.29v2.068h-1.034c-1.338 0-1.642.912-1.642 1.399 0 .73.426 1.034 1.155 1.399.487.182 1.034.426 1.034.851 0 .243-.243.608-.791.608h-.851c.122-.243.182-.547.182-.791 0-.365-.122-1.642-1.946-1.642H6V14h1.034v-2.25l.426.426h2.736c1.277 0 1.946-.669 1.946-1.459 0-.243-.061-.547-.122-.669h1.095c1.642-.001 2.007-.791 2.007-1.399zm-7.663 2.919h-.486V9.865h.487c.608 0 .851.365.851.791 0 .426-.243.912-.852.912zm3.953-3.163v1.216c-.243-.122-.547-.243-.791-.426-.365-.122-.669-.365-.669-.73 0-.182.122-.547.73-.547h1.216l-.486.487zm1.034-2.493h.487c.791 0 .791.486.791.608 0 .182-.122.608-.791.608h-.487V5.912zm-.061 3.466V7.98h.608c.73 0 .851.365.851.669.061.426-.182.73-.851.73h-.608v-.001z"/></g></svg>
